X: 160599
T: Papa's Pet
S: J.O'Brien: "Irish Folk Dance Music" 
Z: B.Black
M: 4/4
L: 1/8
R: reel 
K: Gdor
DG G2 AF F2 | AFcF dFcF | DG G2 AF F2 | AFcA BGGF |
DG G2 AF F2 | Ac c2 dcAd | dAcd fage | fdcA BG G2 :|
dg g2 dfcA | (3GAG FG Ac c2 | dg (3agf g2 fg | af f2 afgf | 
gafg dfcA | GAFG Ac c2 | d3 e f2 (3gfe | fdcA BG G2 :|
